X:1
T:Interstellar
T:Interstellar - Main Theme 
T:Cello Trio 
T:Han Zimer Version By Ricardo D. 
C:Han Zimer
%%score 1 2 3
L:1/8
Q:1/4=80
M:3/4
K:C
V:1 bass nm="Violonchelo" snm="Vc."
V:2 bass nm="Violonchelo" snm="Vc."
V:3 bass nm="Violonchelo" snm="Vc."
V:1
 z6 | z6 | z6 | z6 || A,6 | B,6 | z6 | A,2 B,2 C2 | B,2 A,2 B,2 | C6 | B,6 | z6 | A,4 E2 | C6 | %14
 B,6 | A,2 E2 C2 | B,2 A,2 B,2 | C6 | D6 | E6 | B,G, A,C B,D | CD CB, A,C | B,A, G,A, B,G, | %23
 B,A, G,E B,G, | E,/A,/E,/B,/ E,/C/E,/B,/ E,/A,/E,/C/ | E,/B,/E,/A,/ E,/G,/E,/A,/ E,/B,/E,/G,/ | %26
 E,/B,/E,/A,/ E,/G,/E,/E/ E,/B,/E,/G,/ | E,/A,/E,/C/ E,/B,/E,/D/ E,/C/E,/A,/ | %28
 E,/B,/E,/G,/ E,/A,/E,/C/ E,/B,/E,/D/ | E,/C/E,/D/ E,/C/E,/B,/ E,/A,/E,/C/ | %30
 E,/B,/E,/A,/ E,/G,/E,/A,/ E,/B,/E,/G,/ | E,/B,/E,/A,/ E,/G,/E,/E/ E,/B,/E,/G,/ | %32
 E,/A,/E,/B,/ E,/C/E,/B,/ E,/E/E,/B,/ | E,/C/E,/D/ E,/C/E,/B,/ E,/A,/E,/C/ | %34
 E,/B,/E,/A,/ E,/G,/E,/A,/ E,/B,/E,/G,/ | E,/B,/E,/A,/ E,/G,/E,/E/ E,/B,/E,/G,/ | %36
 E,/A,/E,/C/ E,/E/E,/B,/ E,/C/E,/A,/ | E,/B,/E,/G,/ E,/A,/E,/C/ E,/B,/E,/D/ | %38
 E,/C/E,/B,/ E,/A,/E,/B,/ E,/C/E,/A,/ | E,/D/E,/C/ E,/B,/E,/C/ E,/D/E,/B,/ | EE, EE, EE, | %41
 EE, EE, EE, | E2 E2 E2 | E2 E2 E2 ||!f! A,2 E4 | A,2 E4 | B,2 E4 | B,2 E4 | C2 E4 | C2 E4 | %50
 D2 E4 | D2 E2 B,2 || A,E EE z E | A,E EE z E | B,E EE z E | B,E EE z E | CE EE z E | CE EE z E | %58
 DE EE z E | DE EE z E | B,/C/B,/C/ B,/C/B,/C/ B,/C/B,/C/ | B,/C/B,/C/ B,/C/B,/C/ B,/C/B,/C/ | %62
 B,/C/B,/C/ B,/C/B,/C/ B,/C/B,/C/ | B,/C/B,/C/ B,/C/B,/C/ B,/C/B,/C/ | %64
 B,/C/B,/C/ B,/C/B,/C/ B,/C/B,/C/ | F,,/C,/E,/A,/ E,/C,/F,,/C,/ E,/A,/E,/C,/ | %66
 F,,/C,/E,/A,/ E,/C,/F,,/C,/ E,/A,/E,/C,/ | G,,/D,/E,/B,/ E,/D,/G,,/D,/ E,/B,/E,/D,/ | %68
 G,,/D,/E,/B,/ E,/D,/G,,/D,/ E,/B,/E,/D,/ | %69
[M:12/8] A,,/C,/E,/C/E,/C,/ A,,/C,/E,/C/E,/C,/ A,,/C,/E,/C/E,/C,/ A,,/C,/E,/C/E,/C,/ | %70
 G,,/D,/E,/B,/E,/D,/ G,,/D,/E,/B,/E,/D,/ G,,/D,/E,/B,/E,/D,/ G,,/D,/E,/B,/E,/D,/ | %71
[K:bass] F,,/C,/E,/A,/E,/C,/ F,,/C,/E,/A,/E,/C,/ F,,/C,/E,/A,/E,/C,/ F,,/C,/E,/A,/E,/C,/ | %72
 G,,/D,/E,/B,/E,/D,/ G,,/D,/E,/B,/E,/D,/ G,,/D,/E,/B,/E,/D,/ G,,/D,/E,/B,/E,/D,/ | %73
 A,,/C,/E,/C/E,/C,/ A,,/C,/E,/C/E,/C,/ A,,/C,/E,/C/E,/C,/ A,,/C,/E,/C/E,/C,/ | %74
 G,,/D,/E,/B,/E,/D,/ G,,/D,/E,/B,/E,/D,/ G,,/D,/E,/B,/E,/D,/ G,,/D,/E,/B,/E,/D,/ | %75
 A,/F,/E,/C,/ z/ C,/ E,/F,/A,/F,/E,/C,/ A,/F,/E,/C,/ z/ C,/ E,/F,/A,/F,/E,/C,/ | %76
 B,/E,/D,/B,,/ z/ B,,/ D,/E,/B,/E,/D,/B,,/ B,/E,/D,/B,,/ z/ B,,/ D,/E,/B,/E,/D,/B,,/ | %77
 C/A,/E,/C,/ z/ C,/ E,/A,/C/A,/E,/C,/ C/A,/E,/C,/ z/ C,/ E,/A,/C/A,/E,/C,/ | %78
 A,/F,/E,/C,/ z/ C,/ E,/F,/A,/F,/E,/C,/ A,/F,/E,/C,/ z/ C,/ E,/F,/A,/F,/E,/C,/ | %79
 B,/E,/D,/B,,/ z/ B,,/ D,/E,/B,/E,/D,/B,,/ B,/E,/D,/B,,/ z/ B,,/ D,/E,/B,/E,/D,/B,,/ | %80
 C/A,/E,/C,/ z/ C,/ E,/A,/C/A,/E,/C,/ C/A,/E,/C,/ z/ C,/ E,/A,/C/A,/E,/C,/ | %81
 D/G,/E,/D,/ z/ D,/ E,/G,/D/G,/E,/D,/ D/G,/E,/D,/ z/ D,/ E,/G,/B,/G,/E,/D,/ | %82
 C,,/D,,/E,,/F,,/E,,/D,,/ E,,/C,,/D,,/E,,/F,,/G,,/ D,,/E,,/F,,/G,,/A,,/G,,/ F,,/E,,/F,,/G,,/A,,/B,,/ | %83
 C,/B,,/A,,/B,,/G,,/A,,/ B,,/E,,/B,,/G,,/A,,/G,,/ A,,/B,,/D,/E,,/G,,/A,,/ B,,/G,,/A,,/B,,/D,/E,,/ | %84
 C,/B,,/C,/A,,/B,,/C,/ D,/A,,/C,/B,,/C,/A,,/ B,,/C,/D,/A,,/C,/B,,/ C,/A,,/E,,/C,/B,,/C,/ | %85
 A,,/B,,/C,/D,/C,/B,,/ C,/D,/E,/B,,/C,/D,/ E,/B,,/C,/D,/E,/B,,/ C,/D,/E,/D,/C,/B,,/ | %86
 C,/D,/E,/F,/E,/D,/ E,/C,/D,/E,/F,/G,/ D,/E,/F,/G,/A,/G,/ F,/E,/F,/G,/A,/B,/ | %87
 C/B,/A,/B,/G,/A,/ B,/E,/B,/G,/A,/G,/ A,/B,/D/E,/G,/A,/ B,/G,/A,/B,/D/E,/ | %88
 C/B,/C/A,/B,/C/ D/A,/C/B,/C/A,/ B,/C/D/A,/C/B,/ C/A,/E,/C/B,/C/ | %89
 A,/B,/C/D/C/B,/ C/D/E/B,/C/D/ E/B,/C/D/E/B,/ C/D/E/B,/C/D/ |!mp! E6- E6 | %91
!f! A,/F,/E,/C,/E/C,/ E,/F,/A,/F,/E,/C,/ A,/F,/E,/C,/E/C,/ E,/F,/A,/F,/E,/C,/ || %92
 B,/E,/D,/B,,/E/B,,/ D,/E,/B,/E,/D,/B,,/ B,/E,/D,/B,,/E/B,,/ D,/E,/B,/E,/D,/B,,/ || %93
 C/A,/E,/C,/E/C,/ E,/A,/C/A,/E,/C,/ C/A,/E,/C,/E/C,/ E,/A,/C/A,/E,/C,/ | %94
 D/G,/E,/D,/E/D,/ E,/G,/D/G,/E,/D,/ D/G,/E,/D,/E/D,/ E,/G,/B,/G,/E,/D,/ | %95
 A,/F,/E,/C,/E/C,/ E,/F,/A,/F,/E,/C,/ A,/F,/E,/C,/E/C,/ E,/F,/A,/F,/E,/C,/ | %96
 B,/E,/D,/B,,/E/B,,/ D,/E,/B,/E,/D,/B,,/ B,/E,/D,/B,,/E/B,,/ D,/E,/B,/E,/D,/B,,/ | %97
 C/A,/E,/C,/E/C,/ E,/A,/C/A,/E,/C,/ C/A,/E,/C,/E/C,/ E,/A,/C/A,/E,/C,/ | %98
 D/G,/E,/D,/E/D,/ E,/G,/D/G,/E,/D,/ D/G,/E,/D,/E/D,/ E,/G,/B,/G,/E,/D,/ | %99
 A,/F,/E,/C,/E/C,/ E,/F,/A,/F,/E,/C,/ A,/F,/E,/C,/E/C,/ E,/F,/A,/F,/E,/C,/ | %100
 B,/E,/D,/B,,/E/B,,/ D,/E,/B,/E,/D,/B,,/ B,/E,/D,/B,,/E/B,,/ D,/E,/B,/E,/D,/B,,/ | %101
 C/A,/E,/C,/E/C,/ E,/A,/C/A,/E,/C,/ C/A,/E,/C,/E/C,/ E,/A,/C/A,/E,/C,/ | %102
 D/G,/E,/D,/E/D,/ E,/G,/D/G,/E,/D,/ D/A,/B,/C/D/A,/ B,/C/D/B,/C/D/ | E6- E6 | z12 |] %105
V:2
!p!!<(! E,2 E,2 E,2!<)! | E,2 E,2 E,2 | E,2 E,2 E,2 | E,2 E,2 E,2 || E,2 E,2 E,2 | E,2 E,2 E,2 | %6
 E,2 E,2 E,2 | E,2 E,2 E,2 | E,2 E,2 E,2 | E,2 E,2 E,2 | E,2 E,2 E,2 | E,2 E,2 E,2 | E,2 E,2 E,2 | %13
 E,2 E,2 E,2 | E,2 E,2 E,2 | E,2 E,2 E,2 | E,2 E,2 E,2 | E,2 E,2 E,2 | E,2 E,2 E,2 | E,2 E,2 E,2 | %20
 E,2 E,2 E,2 | E,2 E,2 E,2 | E,2 E,2 E,2 | E,2 E,2 E,2 | A,6- | A,6 | G,6- | G,6 | F,6- | F,6 | %30
 G,6- | G,6 | A,6- | A,6 | G,6- | G,6 | F,6- | F,6 | G,6- | G,6 | z6 | z6 | E,2 E,2 E,2 | %43
 E,2 E,2 E,2 || E,2 E,2 E,2 | E,2 E,2 E,2 | E,2 E,2 E,2 | E,2 E,2 E,2 | E,2 E,2 E,2 | E,2 E,2 E,2 | %50
 E,2 E,2 E,2 | E,2 E,2 E,2 || E,2 E,2 E,2 | E,2 E,2 E,2 | E,2 E,2 E,2 | E,2 E,2 E,2 | E,2 E,2 E,2 | %57
 E,2 E,2 E,2 | E,2 E,2 E,2 | E,2 E,2 E,2 | E,6- | E,6 | E,6- | E,6 |"^arco" E,6 | A,,2 E,4 | %66
 A,,2 E,4 | B,,2 E,4 | B,,2 E,4 |[M:12/8] C,2 E,4 C,2 E,4 | D,2 E,4 D,2 E,2 B,,2 | %71
 A,,2 E,4 A,,2 E,4 | B,,2 E,4 B,,2 E,4 | C,2 E,4 C,2 E,4 | D,2 E,4 D,2 E,2 B,,2 | %75
 F,2 z2 z2 F,2 z4 | G,2 z2 z2 G,2 z4 | A,2 z2 z2 A,2 z4 | F,2 z2 z2 F,2 z4 | G,2 z2 z2 G,2 z4 | %80
 A,2 z2 z2 A,2 z4 | G,2 z2 z2 G,2 z4 | F,6- F,6 | G,6- G,6 | A,6- A,6 | G,6- G,6 | F,6- F,6 | %87
 G,6- G,6 | A,6- A,6 | G,6- G,6 | E,2 E,2 E,2 E,2 E,2 E,2 | %91
 F,,/C,/E,/A,/E,/C,/ F,,/C,/E,/A,/E,/C,/ F,,/C,/E,/A,/E,/C,/ F,,/C,/E,/A,/E,/C,/ || %92
 F,,/C,/D,/A,/D,/C,/ F,,/C,/D,/A,/D,/C,/ F,,/C,/D,/A,/D,/C,/ F,,/C,/D,/A,/D,/C,/ || %93
 A,,/C,/E,/C/E,/C,/ A,,/C,/E,/C/E,/C,/ A,,/C,/E,/C/E,/C,/ A,,/C,/E,/C/E,/C,/ | %94
 G,,/D,/E,/B,/E,/D,/ G,,/D,/E,/B,/E,/D,/ G,,/D,/E,/B,/E,/D,/ G,,/D,/E,/B,/E,/D,/ | %95
 F,,/C,/E,/A,/E,/C,/ F,,/C,/E,/A,/E,/C,/ F,,/C,/E,/A,/E,/C,/ F,,/C,/E,/A,/E,/C,/ | %96
 F,,/C,/D,/A,/D,/C,/ F,,/C,/D,/A,/D,/C,/ F,,/C,/D,/A,/D,/C,/ F,,/C,/D,/A,/D,/C,/ | %97
 A,,/C,/E,/C/E,/C,/ A,,/C,/E,/C/E,/C,/ A,,/C,/E,/C/E,/C,/ A,,/C,/E,/C/E,/C,/ | %98
 G,,/D,/E,/B,/E,/D,/ G,,/D,/E,/B,/E,/D,/ G,,/D,/E,/B,/E,/D,/ G,,/D,/E,/B,/E,/D,/ | %99
 F,,/C,/E,/A,/E,/C,/ F,,/C,/E,/A,/E,/C,/ F,,/C,/E,/A,/E,/C,/ F,,/C,/E,/A,/E,/C,/ | %100
 F,,/C,/D,/A,/D,/C,/ F,,/C,/D,/A,/D,/C,/ F,,/C,/D,/A,/D,/C,/ F,,/C,/D,/A,/D,/C,/ | %101
 A,,/C,/E,/C/E,/C,/ A,,/C,/E,/C/E,/C,/ A,,/C,/E,/C/E,/C,/ A,,/C,/E,/C/E,/C,/ | %102
 G,,/D,/E,/B,/E,/D,/ G,,/D,/E,/B,/E,/D,/ G,,/D,/E,/B,/E,/D,/ G,,/D,/E,/B,/G,,/D,/ | %103
 E,2 E,2 E,2 E,2 E,2 E,2 | z12 |] %105
V:3
 z6 | z6 | z6 | z6 || A,,6 | B,,6 | z6 | A,,2 B,,2 C,2 | B,,2 A,,2 B,,2 | C,6 | B,,6 | z6 | %12
 A,,4 z2 | C,6 | B,,6 | A,,2 z2 C,2 | B,,2 A,,2 B,,2 | C,6 | D,6 | z6 | B,2 A,2 B,2 | C6 | B,6- | %23
 B,6 | A,6 | B,6- | B,6 | A,2 B,2 C2 | B,2 A,2 B,2 | C6 | B,6- | B,6 | A,6 | C6 | B,6- | B,6 | %36
 A,4 C2 | B,2 A,2 B,2 | C6 | D6 | E z z4 | z6 | z6 | z6 ||!mp! F,6- | F,6 | G,6- | G,6 | A,6- | %49
 A,6 | G,6- | G,6 || F,6- | F,6 | G,6- | G,6 | A,6- | A,6 | G,6- | G,6 | %60
 (A,,/C,/E,) (A,,/C,/E,) (A,,/C,/E,) | (B,,/D,/E,) (B,,/D,/E,) (B,,/D,/E,) | %62
 (B,,/D,/E,) (B,,/D,/E,) (B,,/D,/E,) | (A,,/C,/E,) (G,,/B,,/E,) (A,,/C,/E,) | %64
"^arco" (B,,/D,/E,) (A,,/C,/E,) (G,,/B,,/E,) | A,2 E4 | A,2 E4 | B,2 E4 | B,2 E4 | %69
[M:12/8] C2 E4 C2 E4 | D2 E4 D2 E2 B,2 | A,2 E4 A,2 E4 | B,2 E4 B,2 E4 | C2 E4 C2 E4 | %74
 D2 E4 D2 E2 B,2 |!mf! F,,2 E,4 F,,2 E,4 | G,,2 E,4 G,,2 E,4 | A,,2 E,4 A,,2 E,4 | %78
 F,,2 E4 F,,2 E4 | G,,2 E4 G,,2 E4 | A,,2 E4 A,,2 E4 | G,,2 E4 G,,2 E4 | A,2 E4 A,2 E4 | %83
 B,2 E4 B,2 E4 | C2 E4 C2 E4 | D2 E4 D2 E4 | A,2 E2 A,2 A,2 E2 A,2 | B,2 E2 B,2 B,2 E2 B,2 | %88
 C2 E2 C2 C2 E2 C2 | D2 E2 D2 D2 E2 B,2 |!mp! E,6- E,6 |!p! F,,6- F,,6 || G,,6- G,,6 || %93
 A,,6- A,,6 | G,,6- G,,6 | F,,6- F,,6 | G,,6- G,,6 | A,,6- A,,6 | G,,6- G,,6 | A,,6- A,,6 | %100
 G,,6- G,,6 | F,,6- F,,6 | G,,6- G,,6 | E,6- E,6 | z12 |] %105

